svg/color/xpa.svg

<svg height="32" viewBox="0 0 32 32" width="32" xmlns="http://www.w3.org/2000/svg"><g fill="none" fill-rule="evenodd"><circle cx="16" cy="16" fill="#4fa784" r="16"/><path d="m25.574504 12.8463471-8.1091273-2.3247866-2.7743608 4.7256913-3.2215207-3.7376028 1.4593314-.1876905 1.5053258 1.7676482 1.6700535-2.9584772-7.35088044-2.10743027c-.43540418-.12488583-.84421095.26366393-.73561706.69953428l3.2563472 13.07712349 3.4973404-5.8885911 3.2218146 3.737458-1.4594784.1876905-1.5051789-1.7676481-3.309542 5.5162489.4906563 1.9706781c.1084469.4355809.6528859.5918691.9796961.2807399l12.6295133-12.010312c.3268103-.3106951.1910312-.855533-.244226-.9802741z" fill="#fff"/></g></svg>

<svg xmlns="http://www.w3.org/2000/svg" width="32" height="32" viewBox="0 0 32 32">
  <g fill="none" fill-rule="evenodd">
    <circle cx="16" cy="16" r="16" fill="#4FA784"/>
    <path fill="#FFF" d="M25.574504,12.8463471 L17.4653767,10.5215605 L14.6910159,15.2472518 L11.4694952,11.509649 L12.9288266,11.3219585 L14.4341524,13.0896067 L16.1042059,10.1311295 L8.75332546,8.02369923 C8.31792128,7.8988134 7.90911451,8.28736316 8.0177084,8.72323351 L11.2740556,21.800357 L14.771396,15.9117659 L17.9932106,19.6492239 L16.5337322,19.8369144 L15.0285533,18.0692663 L11.7190113,23.5855152 L12.2096676,25.5561933 C12.3181145,25.9917742 12.8625535,26.1480624 13.1893637,25.8369332 L25.818877,13.8266212 C26.1456873,13.5159261 26.0099082,12.9710882 25.574651,12.8463471 L25.574504,12.8463471 Z"/>
  </g>
</svg>
